svgs/sharp-light/square-4.svg

<svg xmlns="http://www.w3.org/2000/svg" viewBox="0 0 448 512"><!--! Font Awesome Pro 6.6.0 by @fontawesome - https://fontawesome.com License - https://fontawesome.com/license (Commercial License) Copyright 2024 Fonticons, Inc. --><path d="M32 64l0 384 384 0 0-384L32 64zM0 32l32 0 384 0 32 0 0 32 0 384 0 32-32 0L32 480 0 480l0-32L0 64 0 32zM113.1 298.1l68-170.1 34.5 0-.8 1.9L151.6 288 256 288l0-80 0-16 32 0 0 16 0 80 16 0 16 0 0 32-16 0-16 0 0 48 0 16-32 0 0-16 0-48-128 0-23.6 0 8.8-21.9z"/></svg>

<svg xmlns="http://www.w3.org/2000/svg" viewBox="0 0 448 512"><!--! Font Awesome Pro 6.4.2 by @fontawesome - https://fontawesome.com License - https://fontawesome.com/license (Commercial License) Copyright 2023 Fonticons, Inc. --><path d="M32 64V448H416V64H32zM0 32H32 416h32V64 448v32H416 32 0V448 64 32zM113.1 298.1l68-170.1h34.5l-.8 1.9L151.6 288H256V208 192h32v16 80h16 16v32H304 288v48 16H256V368 320H128 104.4l8.8-21.9z"/></svg>
